public/assets/images/why-choose/04.svg

<svg width="46" height="46" viewBox="0 0 46 46" fill="none" xmlns="http://www.w3.org/2000/svg">
<g clip-path="url(#clip0_118_6669)">
<path d="M37.3308 40.0651L35.6132 34.9116C35.013 33.1124 33.4816 31.7843 31.6149 31.4445L26.6566 30.5423V30.158C27.5194 29.6572 28.2703 28.9872 28.8683 28.1941H30.3662C31.5934 28.1941 32.592 27.1955 32.592 25.9683V17.0651C32.592 11.7469 28.2651 7.41992 22.9469 7.41992C17.6287 7.41992 13.3017 11.7469 13.3017 17.0651V22.2586C13.3017 23.6891 14.3189 24.8858 15.6677 25.1648C16.084 27.2971 17.4165 29.1015 19.2372 30.158V30.5423L14.2781 31.4445C12.4121 31.7843 10.88 33.1124 10.2805 34.9116L9.98378 35.8027L7.45674 33.2756C7.16739 32.9863 7.16739 32.5151 7.45674 32.2258L10.3874 29.2959L4.88668 23.7952L1.57468 27.1072C0.59384 28.088 0.0537109 29.3923 0.0537109 30.7798C0.0537109 32.1672 0.59384 33.4708 1.57468 34.4516L11.6019 44.4789C12.5828 45.4597 13.8871 46.0006 15.2745 46.0006C16.6619 46.0006 17.9655 45.4597 18.9234 44.5011L22.5373 41.1899L21.4103 40.0651H37.3308ZM31.1082 25.9683C31.1082 26.3779 30.775 26.7102 30.3662 26.7102H29.7423C29.9574 26.2198 30.1206 25.7027 30.226 25.1648C30.5436 25.0988 30.8359 24.9726 31.1082 24.8139V25.9683ZM30.3662 23.5362V20.981C30.8077 21.2385 31.1082 21.7118 31.1082 22.2586C31.1082 22.8054 30.8077 23.2788 30.3662 23.5362ZM15.5275 23.5362C15.0861 23.2788 14.7856 22.8054 14.7856 22.2586C14.7856 21.7118 15.0861 21.2385 15.5275 20.981V23.5362ZM15.5275 18.549V19.3962C15.2634 19.4652 15.0156 19.5691 14.7856 19.7034V17.0651C14.7856 12.5652 18.447 8.90379 22.9469 8.90379C27.4467 8.90379 31.1082 12.5652 31.1082 17.0651V19.7034C30.8782 19.5691 30.6304 19.4645 30.3662 19.3962V18.549H29.6243C27.4304 18.549 25.3678 17.6942 23.8157 16.1429L22.9469 15.2741L22.0781 16.1429C20.5259 17.6942 18.4634 18.549 16.2695 18.549H15.5275ZM17.0114 23.7425V20.0046C19.2394 19.837 21.3168 18.9177 22.9469 17.3678C24.5769 18.9177 26.6543 19.8377 28.8824 20.0046V23.7425C28.8824 24.8242 28.5871 25.8362 28.0796 26.7102H22.9469V28.1941H26.8598C25.8137 29.1149 24.4463 29.678 22.9469 29.678C19.6742 29.678 17.0114 27.0152 17.0114 23.7425ZM25.1727 30.8198V30.8547L22.9469 33.0805L20.7211 30.8547V30.8198C21.4244 31.0409 22.1715 31.1619 22.9469 31.1619C23.7222 31.1619 24.4693 31.0409 25.1727 30.8198ZM11.6873 35.3805C12.1154 34.0955 13.2097 33.1465 14.543 32.9032L19.7291 31.9609L22.9469 35.1787L26.1639 31.9617L31.3493 32.9039C32.6826 33.1473 33.7769 34.0955 34.205 35.3812L35.2726 38.5812H19.9265L17.0366 35.6914L13.8255 38.5961C13.5458 38.8772 13.0569 38.8772 12.7764 38.5961L11.156 36.9757L11.6873 35.3805ZM4.88594 25.8934L8.28845 29.2959L7.48271 30.1016L4.08019 26.6991L4.88594 25.8934ZM17.8958 43.4312C17.1954 44.1301 16.2635 44.5167 15.273 44.5167C14.2825 44.5167 13.3507 44.1301 12.6495 43.4298L2.62229 33.4032C1.9219 32.7029 1.5361 31.771 1.5361 30.7805C1.5361 29.7893 1.9219 28.8574 2.62229 28.157L3.03036 27.749L6.43287 31.1515L6.40616 31.1782C5.53884 32.0462 5.53884 33.4581 6.40616 34.3262L11.7266 39.6466C12.1473 40.0666 12.7059 40.2988 13.301 40.2988C13.896 40.2988 14.4547 40.0673 14.8479 39.6726L14.9035 39.6229L18.3216 43.041L17.8958 43.4312ZM19.4167 42.0364L16.0061 38.6257L16.9862 37.7399L20.3909 41.1446L19.4167 42.0364Z" fill="#0F62FE"/>
<path d="M43.7212 0H33.3341C32.1069 0 31.1083 0.998645 31.1083 2.22581V8.16129C31.1083 9.38845 32.1069 10.3871 33.3341 10.3871H35.3158L34.5486 14.8617L41.7083 10.3871H43.7212C44.9483 10.3871 45.947 9.38845 45.947 8.16129V2.22581C45.947 0.998645 44.9483 0 43.7212 0ZM44.4631 8.16129C44.4631 8.5701 44.13 8.90323 43.7212 8.90323H41.2824L36.5704 11.848L37.0757 8.90323H33.3341C32.9253 8.90323 32.5921 8.5701 32.5921 8.16129V2.22581C32.5921 1.817 32.9253 1.48387 33.3341 1.48387H43.7212C44.13 1.48387 44.4631 1.817 44.4631 2.22581V8.16129Z" fill="#0F62FE"/>
<path d="M42.9794 2.9668H34.0762V4.45067H42.9794V2.9668Z" fill="#0F62FE"/>
<path d="M40.0114 5.93555H34.0759V7.41942H40.0114V5.93555Z" fill="#0F62FE"/>
<path d="M42.9792 5.93555H41.4954V7.41942H42.9792V5.93555Z" fill="#0F62FE"/>
<path d="M22.9471 2.22656C13.253 2.22656 4.90251 8.93218 2.73161 18.2858L1.32564 15.942L0.0532227 16.7054L2.66113 21.0509L7.00664 18.443L6.24319 17.1706L4.23255 18.377C6.33519 9.82027 14.0298 3.71043 22.9471 3.71043C24.8962 3.71043 26.8193 3.99979 28.663 4.57108L29.1022 3.15398C27.1161 2.53818 25.0453 2.22656 22.9471 2.22656Z" fill="#0F62FE"/>
<path d="M45.5862 16.4282L41.2406 13.8203L38.6335 18.1666L39.9059 18.93L41.2043 16.7658C41.8876 18.7653 42.2371 20.8568 42.2371 23.0003C42.2371 27.4126 40.7087 31.7262 37.9346 35.1458L39.0868 36.0806C42.0753 32.3976 43.7209 27.7516 43.7209 23.0003C43.7209 20.7307 43.3551 18.5145 42.6421 16.3926L44.8227 17.7006L45.5862 16.4282Z" fill="#0F62FE"/>
</g>
<defs>
<clipPath id="clip0_118_6669">
<rect width="46" height="46" fill="white"/>
</clipPath>
</defs>
</svg>

<svg xmlns="http://www.w3.org/2000/svg" width="46" height="46" fill="none" viewBox="0 0 46 46"><g fill="#0f62fe" clip-path="url(#a)"><path d="m37.33 40.065-1.717-5.153a5.2 5.2 0 0 0-3.998-3.467l-4.958-.903v-.384a7.5 7.5 0 0 0 2.211-1.964h1.498a2.23 2.23 0 0 0 2.226-2.226v-8.903c0-5.318-4.327-9.645-9.645-9.645s-9.645 4.327-9.645 9.645v5.194a2.97 2.97 0 0 0 2.366 2.906 7.43 7.43 0 0 0 3.57 4.993v.384l-4.96.902a5.19 5.19 0 0 0-3.998 3.468l-.296.89-2.527-2.526a.743.743 0 0 1 0-1.05l2.93-2.93-5.5-5.5-3.312 3.311A5.16 5.16 0 0 0 .054 30.78c0 1.387.54 2.69 1.52 3.672l10.028 10.027A5.16 5.16 0 0 0 15.274 46a5.14 5.14 0 0 0 3.65-1.5l3.613-3.311-1.127-1.125zm-6.222-14.097c0 .41-.333.742-.742.742h-.624c.215-.49.379-1.007.484-1.545a3 3 0 0 0 .882-.351zm-.742-2.432v-2.555c.442.257.742.73.742 1.278 0 .546-.3 1.02-.742 1.277m-14.838 0a1.48 1.48 0 0 1-.742-1.277c0-.547.3-1.02.742-1.278zm0-4.987v.847a3 3 0 0 0-.742.307v-2.638c0-4.5 3.661-8.161 8.16-8.161s8.162 3.661 8.162 8.161v2.638a3 3 0 0 0-.742-.307v-.847h-.742a8.16 8.16 0 0 1-5.808-2.406l-.87-.869-.868.869a8.16 8.16 0 0 1-5.808 2.406zm1.483 5.194v-3.738a9.62 9.62 0 0 0 5.936-2.637 9.6 9.6 0 0 0 5.935 2.637v3.738a5.9 5.9 0 0 1-.802 2.967h-5.133v1.484h3.913a5.9 5.9 0 0 1-3.913 1.484 5.94 5.94 0 0 1-5.936-5.936m8.162 7.077v.035l-2.226 2.226-2.226-2.226v-.035a7.4 7.4 0 0 0 4.452 0m-13.486 4.56a3.71 3.71 0 0 1 2.856-2.477l5.186-.942 3.218 3.218 3.217-3.217 5.185.942a3.71 3.71 0 0 1 2.856 2.477l1.068 3.2H19.926l-2.89-2.89-3.21 2.905a.76.76 0 0 1-1.05 0l-1.62-1.62zm-6.801-9.487 3.402 3.403-.805.806-3.403-3.403zm13.01 17.538a3.7 3.7 0 0 1-2.623 1.086 3.7 3.7 0 0 1-2.623-1.087L2.621 33.403a3.7 3.7 0 0 1-1.086-2.622c0-.992.386-1.924 1.086-2.624l.408-.408 3.403 3.403-.027.026a2.23 2.23 0 0 0 0 3.148l5.32 5.32c.421.42.98.653 1.575.653s1.154-.232 1.547-.626l.055-.05 3.419 3.418zm1.52-1.395-3.41-3.41.98-.886 3.405 3.405zM43.721 0H33.334a2.23 2.23 0 0 0-2.226 2.226V8.16a2.23 2.23 0 0 0 2.226 2.226h1.982l-.767 4.475 7.16-4.475h2.012a2.23 2.23 0 0 0 2.226-2.226V2.226A2.23 2.23 0 0 0 43.721 0m.742 8.161a.743.743 0 0 1-.742.742h-2.439l-4.712 2.945.506-2.945h-3.742a.743.743 0 0 1-.742-.742V2.226c0-.409.333-.742.742-.742h10.387c.409 0 .742.333.742.742z"/><path d="M42.98 2.967h-8.904V4.45h8.903zm-2.969 2.969h-5.935v1.483h5.935zm2.969 0h-1.485v1.483h1.484zM22.947 2.227c-9.694 0-18.044 6.705-20.215 16.059l-1.406-2.344-1.273.763 2.608 4.346 4.346-2.608-.764-1.272-2.01 1.206C6.335 9.82 14.03 3.71 22.947 3.71c1.95 0 3.872.29 5.716.861l.44-1.417a20.8 20.8 0 0 0-6.156-.927m22.639 14.201-4.345-2.608-2.608 4.347 1.273.763 1.298-2.164c.684 2 1.033 4.09 1.033 6.234 0 4.413-1.528 8.726-4.302 12.146l1.152.935A20.82 20.82 0 0 0 43.72 23c0-2.27-.366-4.486-1.079-6.608l2.18 1.308z"/></g><defs><clipPath id="a"><path fill="#fff" d="M0 0h46v46H0z"/></clipPath></defs></svg>
